lib/flags/us-united-states.svg

<svg xmlns="http://www.w3.org/2000/svg" fill="none" aria-hidden="true" viewBox="0 0 42 30"><g id="Country=US - United States, Size=sm (36x24)" filter="url(#filter0_dd_91_24277)"><g clip-path="url(#clip0_91_24277)"><g id="flag"><mask id="mask0_91_24277" width="36" height="24" x="3" y="2" maskUnits="userSpaceOnUse" style="mask-type:alpha"><rect id="mask" width="36" height="24" x="3" y="2" fill="white"/></mask><g mask="url(#mask0_91_24277)"><g id="contents"><path id="middle" fill="#F7FCFF" fill-rule="evenodd" d="M3 2H39V26H3V2Z" clip-rule="evenodd"/><path id="Combined Shape" fill="#E31D1C" fill-rule="evenodd" d="M3 16.6665V18.6665H39V16.6665H3Z" clip-rule="evenodd"/><path id="Combined Shape_2" fill="#E31D1C" fill-rule="evenodd" d="M3 20.3335V22.3335H39V20.3335H3Z" clip-rule="evenodd"/><path id="Combined Shape_3" fill="#E31D1C" fill-rule="evenodd" d="M3 9.3335V11.3335H39V9.3335H3Z" clip-rule="evenodd"/><path id="Combined Shape_4" fill="#E31D1C" fill-rule="evenodd" d="M3 24V26H39V24H3Z" clip-rule="evenodd"/><path id="Combined Shape_5" fill="#E31D1C" fill-rule="evenodd" d="M3 13V15H39V13H3Z" clip-rule="evenodd"/><path id="Combined Shape_6" fill="#E31D1C" fill-rule="evenodd" d="M3 2V4H39V2H3Z" clip-rule="evenodd"/><path id="Combined Shape_7" fill="#E31D1C" fill-rule="evenodd" d="M3 5.6665V7.6665H39V5.6665H3Z" clip-rule="evenodd"/><rect id="Rectangle 82" width="22.5" height="13" x="3" y="2" fill="#2E42A5"/><path id="Combined Shape_8" fill="#F7FCFF" fill-rule="evenodd" d="M4.93712 4.93871L4.12051 5.44759L4.3962 4.54198L3.6709 3.96807H4.61825L4.93598 3.229L5.30855 3.96807H6.11614L5.48159 4.54198L5.72725 5.44759L4.93712 4.93871ZM9.4371 4.93871L8.62048 5.44759L8.89618 4.54198L8.17088 3.96807H9.11822L9.43596 3.229L9.80852 3.96807H10.6161L9.98157 4.54198L10.2272 5.44759L9.4371 4.93871ZM13.1205 5.44759L13.9371 4.93871L14.7272 5.44759L14.4816 4.54198L15.1161 3.96807H14.3085L13.936 3.229L13.6182 3.96807H12.6709L13.3962 4.54198L13.1205 5.44759ZM18.4371 4.93871L17.6205 5.44759L17.8962 4.54198L17.1709 3.96807H18.1182L18.436 3.229L18.8085 3.96807H19.6161L18.9816 4.54198L19.2272 5.44759L18.4371 4.93871ZM4.12051 9.44759L4.93712 8.93871L5.72725 9.44759L5.48159 8.54198L6.11614 7.96807H5.30855L4.93598 7.229L4.61825 7.96807H3.6709L4.3962 8.54198L4.12051 9.44759ZM9.4371 8.93871L8.62048 9.44759L8.89618 8.54198L8.17088 7.96807H9.11822L9.43596 7.229L9.80852 7.96807H10.6161L9.98157 8.54198L10.2272 9.44759L9.4371 8.93871ZM13.1205 9.44759L13.9371 8.93871L14.7272 9.44759L14.4816 8.54198L15.1161 7.96807H14.3085L13.936 7.229L13.6182 7.96807H12.6709L13.3962 8.54198L13.1205 9.44759ZM18.4371 8.93871L17.6205 9.44759L17.8962 8.54198L17.1709 7.96807H18.1182L18.436 7.229L18.8085 7.96807H19.6161L18.9816 8.54198L19.2272 9.44759L18.4371 8.93871ZM4.12051 13.4476L4.93712 12.9387L5.72725 13.4476L5.48159 12.542L6.11614 11.9681H5.30855L4.93598 11.229L4.61825 11.9681H3.6709L4.3962 12.542L4.12051 13.4476ZM9.4371 12.9387L8.62048 13.4476L8.89618 12.542L8.17088 11.9681H9.11822L9.43596 11.229L9.80852 11.9681H10.6161L9.98157 12.542L10.2272 13.4476L9.4371 12.9387ZM13.1205 13.4476L13.9371 12.9387L14.7272 13.4476L14.4816 12.542L15.1161 11.9681H14.3085L13.936 11.229L13.6182 11.9681H12.6709L13.3962 12.542L13.1205 13.4476ZM18.4371 12.9387L17.6205 13.4476L17.8962 12.542L17.1709 11.9681H18.1182L18.436 11.229L18.8085 11.9681H19.6161L18.9816 12.542L19.2272 13.4476L18.4371 12.9387ZM22.1205 5.44759L22.9371 4.93871L23.7272 5.44759L23.4816 4.54198L24.1161 3.96807H23.3085L22.936 3.229L22.6182 3.96807H21.6709L22.3962 4.54198L22.1205 5.44759ZM22.9371 8.93871L22.1205 9.44759L22.3962 8.54198L21.6709 7.96807H22.6182L22.936 7.229L23.3085 7.96807H24.1161L23.4816 8.54198L23.7272 9.44759L22.9371 8.93871ZM22.1205 13.4476L22.9371 12.9387L23.7272 13.4476L23.4816 12.542L24.1161 11.9681H23.3085L22.936 11.229L22.6182 11.9681H21.6709L22.3962 12.542L22.1205 13.4476ZM7.1871 6.93871L6.37048 7.44759L6.64618 6.54198L5.92088 5.96807H6.86822L7.18596 5.229L7.55852 5.96807H8.36611L7.73157 6.54198L7.97723 7.44759L7.1871 6.93871ZM10.8705 7.44759L11.6871 6.93871L12.4772 7.44759L12.2316 6.54198L12.8661 5.96807H12.0585L11.686 5.229L11.3682 5.96807H10.4209L11.1462 6.54198L10.8705 7.44759ZM16.1871 6.93871L15.3705 7.44759L15.6462 6.54198L14.9209 5.96807H15.8682L16.186 5.229L16.5585 5.96807H17.3661L16.7316 6.54198L16.9772 7.44759L16.1871 6.93871ZM6.37048 11.4476L7.1871 10.9387L7.97723 11.4476L7.73157 10.542L8.36611 9.96807H7.55852L7.18596 9.229L6.86822 9.96807H5.92088L6.64618 10.542L6.37048 11.4476ZM11.6871 10.9387L10.8705 11.4476L11.1462 10.542L10.4209 9.96807H11.3682L11.686 9.229L12.0585 9.96807H12.8661L12.2316 10.542L12.4772 11.4476L11.6871 10.9387ZM15.3705 11.4476L16.1871 10.9387L16.9772 11.4476L16.7316 10.542L17.3661 9.96807H16.5585L16.186 9.229L15.8682 9.96807H14.9209L15.6462 10.542L15.3705 11.4476ZM20.6871 6.93871L19.8705 7.44759L20.1462 6.54198L19.4209 5.96807H20.3682L20.686 5.229L21.0585 5.96807H21.8661L21.2316 6.54198L21.4772 7.44759L20.6871 6.93871ZM19.8705 11.4476L20.6871 10.9387L21.4772 11.4476L21.2316 10.542L21.8661 9.96807H21.0585L20.686 9.229L20.3682 9.96807H19.4209L20.1462 10.542L19.8705 11.4476Z" clip-rule="evenodd"/></g></g></g></g></g><defs><filter id="filter0_dd_91_24277" width="42" height="30" x="0" y="0" color-interpolation-filters="sRGB" filterUnits="userSpaceOnUse"><feFlood flood-opacity="0" result="BackgroundImageFix"/><feColorMatrix in="SourceAlpha" result="hardAlpha" values="0 0 0 0 0 0 0 0 0 0 0 0 0 0 0 0 0 0 127 0"/><feOffset dy="1"/><feGaussianBlur stdDeviation="1"/><feColorMatrix values="0 0 0 0 0.0627451 0 0 0 0 0.0941176 0 0 0 0 0.156863 0 0 0 0.06 0"/><feBlend in2="BackgroundImageFix" result="effect1_dropShadow_91_24277"/><feColorMatrix in="SourceAlpha" result="hardAlpha" values="0 0 0 0 0 0 0 0 0 0 0 0 0 0 0 0 0 0 127 0"/><feOffset dy="1"/><feGaussianBlur stdDeviation="1.5"/><feColorMatrix values="0 0 0 0 0.0627451 0 0 0 0 0.0941176 0 0 0 0 0.156863 0 0 0 0.1 0"/><feBlend in2="effect1_dropShadow_91_24277" result="effect2_dropShadow_91_24277"/><feBlend in="SourceGraphic" in2="effect2_dropShadow_91_24277" result="shape"/></filter><clipPath id="clip0_91_24277"><rect width="36" height="24" x="3" y="2" fill="white" rx="2"/></clipPath></defs></svg>

<svg xmlns="http://www.w3.org/2000/svg" fill="none" aria-hidden="true" viewBox="0 0 42 30"><g filter="url(#a)"><g clip-path="url(#b)"><mask id="c" width="36" height="24" x="3" y="2" maskUnits="userSpaceOnUse" style="mask-type:alpha"><path fill="#fff" d="M3 2h36v24H3z"/></mask><g mask="url(#c)"><path fill="#F7FCFF" fill-rule="evenodd" d="M3 2h36v24H3V2Z" clip-rule="evenodd"/><path fill="#E31D1C" fill-rule="evenodd" d="M3 16.666v2h36v-2H3Zm0 3.668v2h36v-2H3Zm0-11v2h36v-2H3ZM3 24v2h36v-2H3Zm0-11v2h36v-2H3ZM3 2v2h36V2H3Zm0 3.667v2h36v-2H3Z" clip-rule="evenodd"/><path fill="#2E42A5" d="M3 2h22.5v13H3z"/><path fill="#F7FCFF" fill-rule="evenodd" d="m4.937 4.939-.816.509.275-.906-.725-.574h.947l.318-.739.373.74h.807l-.634.573.245.906-.79-.51Zm4.5 0-.817.509.276-.906-.725-.574h.947l.318-.739.373.74h.807l-.634.573.245.906-.79-.51Zm3.684.509.816-.51.79.51-.245-.906.634-.574h-.807l-.373-.739-.318.74h-.947l.725.573-.276.906Zm5.316-.51-.817.51.276-.906-.725-.574h.947l.318-.739.372.74h.808l-.634.573.245.906-.79-.51ZM4.121 9.449l.816-.51.79.51-.245-.906.634-.574H5.31l-.373-.739-.318.74h-.947l.725.573-.275.906Zm5.316-.51-.817.51.276-.906-.725-.574h.947l.318-.739.373.74h.807l-.634.573.245.906-.79-.51Zm3.684.51.816-.51.79.51-.245-.906.634-.574h-.807l-.373-.739-.318.74h-.947l.725.573-.276.906Zm5.316-.51-.817.51.276-.906-.725-.574h.947l.318-.739.372.74h.808l-.634.573.245.906-.79-.51Zm-14.316 4.51.816-.51.79.51-.245-.906.634-.574H5.31l-.373-.739-.318.74h-.947l.725.573-.275.906Zm5.316-.51-.817.51.276-.906-.725-.574h.947l.318-.739.373.74h.807l-.634.573.245.906-.79-.51Zm3.684.51.816-.51.79.51-.245-.906.634-.574h-.807l-.373-.739-.318.74h-.947l.725.573-.276.906Zm5.316-.51-.817.51.276-.906-.725-.574h.947l.318-.739.372.74h.808l-.634.573.245.906-.79-.51Zm3.683-7.49.817-.51.79.51-.245-.906.634-.574h-.808l-.372-.739-.318.74h-.947l.725.573-.276.906Zm.817 3.49-.817.51.276-.906-.725-.574h.947l.318-.739.372.74h.808l-.634.573.245.906-.79-.51Zm-.817 4.51.817-.51.79.51-.245-.906.634-.574h-.808l-.372-.739-.318.74h-.947l.725.573-.276.906ZM7.188 6.938l-.817.51.276-.906-.725-.574h.947l.318-.739.373.74h.807l-.634.573.245.906-.79-.51Zm3.683.51.817-.51.79.51-.245-.906.634-.574h-.807l-.373-.739-.318.74h-.947l.725.573-.276.906Zm5.317-.51-.817.51.276-.906-.725-.574h.947l.318-.739.372.74h.808l-.634.573.245.906-.79-.51Zm-9.817 4.51.817-.51.79.51-.245-.906.634-.574H7.56l-.373-.739-.318.74h-.947l.725.573-.276.906Zm5.317-.51-.816.51.275-.906-.725-.574h.947l.318-.739.373.74h.807l-.634.573.245.906-.79-.51Zm3.684.51.816-.51.79.51-.245-.906.634-.574h-.808l-.372-.739-.318.74h-.947l.725.573-.276.906Zm5.316-4.51-.817.51.276-.906-.725-.574h.947l.318-.739.372.74h.808l-.634.573.245.906-.79-.51Zm-.817 4.51.817-.51.79.51-.245-.906.634-.574h-.808l-.372-.739-.318.74h-.947l.725.573-.276.906Z" clip-rule="evenodd"/></g></g></g><defs><clipPath id="b"><rect width="36" height="24" x="3" y="2" fill="#fff" rx="2"/></clipPath><filter id="a" width="42" height="30" x="0" y="0" color-interpolation-filters="sRGB" filterUnits="userSpaceOnUse"><feFlood flood-opacity="0" result="BackgroundImageFix"/><feColorMatrix in="SourceAlpha" result="hardAlpha" values="0 0 0 0 0 0 0 0 0 0 0 0 0 0 0 0 0 0 127 0"/><feOffset dy="1"/><feGaussianBlur stdDeviation="1"/><feColorMatrix values="0 0 0 0 0.0627451 0 0 0 0 0.0941176 0 0 0 0 0.156863 0 0 0 0.06 0"/><feBlend in2="BackgroundImageFix" result="effect1_dropShadow_91_24277"/><feColorMatrix in="SourceAlpha" result="hardAlpha" values="0 0 0 0 0 0 0 0 0 0 0 0 0 0 0 0 0 0 127 0"/><feOffset dy="1"/><feGaussianBlur stdDeviation="1.5"/><feColorMatrix values="0 0 0 0 0.0627451 0 0 0 0 0.0941176 0 0 0 0 0.156863 0 0 0 0.1 0"/><feBlend in2="effect1_dropShadow_91_24277" result="effect2_dropShadow_91_24277"/><feBlend in="SourceGraphic" in2="effect2_dropShadow_91_24277" result="shape"/></filter></defs></svg>
